X: 2
T: Gypsy Meghan
M: 4/4
L: 1/8
R: reel
K: Dmaj
|: c2 AB cFAB | c/e/c Ac BEGB | cA- AB cFAB | cd^ec BEGE :|
|: cF/A/GF cFAB | cF- FA BEGB | cF/A/GF cFAB | cd^ec BE/G/FE :|
|: c2 Af FcAB | cAAf eB ^G/A/B | cA- Af FcAB | cfec BE^GE :|
|: cFfF ^eF G/A/B | cFfF ^eE G/F/E | cFfF ^eFdF | cFBF AEGE :|
